!!!OTL: Deutscher dantz
!!!ARE: Europa, Mitteleuropa, Deutschland
!!!SCT: A0316
!!!YEM: Copyright 1995, estate of Helmut Schaffrath.
**kern
*ICvox
*Ivox
*M4/2
*k[f#c#g#]
*A:
{4a
4b
=1
2cc#
2b
2cc#
2dd
=2
1ee
2cc#}
{2ee
=3
2dd
2cc#
2b
2ee
=4
1cc#
2r}
{4a
4b
=5
2cc#
2b
2cc#
2dd
=6
1ee
2cc#}
{2ee
=7
2dd
2cc#
2b
2ee
=8
1cc#
2r}
{2cc#
=9
2cc#
2b
2a
2gn
=10
2f#
4e
4d
2e}
{4b
4a
=11
2g#
4f#
4e
4f#
4e
4c#
4d#
=12
1e
2r}
{4f#
4g#
=13
2a
2a
2b
2b
=14
2cc#
2ee
4dd
4cc#}
{4b
4a
=15
2b
2a
2a
2g#
=16
1a
2r}
==
!!!AGN: Romanze, Ballade, Lied
!! Hainhofer, Lautenbuch II. 1603. Bl. 9b Hs. in Wolfenbuettel.
!!!ONB: ESAC (Essen Associative Code) Database: ALTDEU
!!!AMT: simple quadruple
!!!AIN: vox
!!!EED: Helmut Schaffrath
!!!EEV: 1.0
*-
